X:391
T: "Die Betrogene"
N: Z1071
O: Europa, Mitteleuropa, Deutschland, Niederrhein
R: Romanze, Ballade
M: 6/8
L: 1/16
K: F
C2 | F2C2F2A2F2A2 | c2d2c2A2F2
FA | c4A2B2G2c2 | A4z6
C2 | F2C2F2A2F2A2 | c2d2c2A2F2
FA | c4A2B2G2c2 | A4z6
A2 | A2G2G2G2F2F2 | A2B2AGF4
B2 | B2B2B2B2c2d2 | d2c2c2c4
cf | f2c2c2c2B2A2 | B6G2c2B2 | A4z6

@@@ Tune index: 10149
